resources/haticons/SVG/trello2.svg

<!-- Generated by IcoMoon.io -->
<svg version="1.1" xmlns="http://www.w3.org/2000/svg" width="24" height="24" viewBox="0 0 24 24">
<title>trello2</title>
<path fill="#0079bf" d="M21 0h-18c-1.657 0-3 1.343-3 3v18c0 1.656 1.343 3 3 3h18c1.656 0 3-1.344 3-3v-18c0-1.657-1.344-3-3-3zM10.44 18.18c0 0.795-0.645 1.44-1.44 1.44h-4.44c-0.795 0-1.44-0.646-1.44-1.44v-13.62c0-0.795 0.645-1.44 1.44-1.44h4.44c0.795 0 1.44 0.645 1.44 1.44zM20.88 12.18c0 0.794-0.645 1.44-1.44 1.44h-4.44c-0.795 0-1.44-0.646-1.44-1.44v-7.62c0-0.795 0.646-1.44 1.44-1.44h4.44c0.795 0 1.44 0.645 1.44 1.44z"></path>
</svg>

<svg xmlns="http://www.w3.org/2000/svg" width="24" height="24"><path fill="#0079bf" d="M21 0H3a3 3 0 0 0-3 3v18a3 3 0 0 0 3 3h18c1.656 0 3-1.344 3-3V3a3 3 0 0 0-3-3zM10.44 18.18A1.44 1.44 0 0 1 9 19.62H4.56c-.795 0-1.44-.646-1.44-1.44V4.56c0-.795.645-1.44 1.44-1.44H9c.795 0 1.44.645 1.44 1.44zm10.44-6c0 .794-.645 1.44-1.44 1.44H15c-.795 0-1.44-.646-1.44-1.44V4.56c0-.795.646-1.44 1.44-1.44h4.44c.795 0 1.44.645 1.44 1.44z"/></svg>
